icon/gr/servers.svg

<svg xmlns="http://www.w3.org/2000/svg" width="24" height="24"><path fill="none" stroke="#000" stroke-width="2" d="M7 19h1v-1H7v1Zm11 0h1v-1h-1v1ZM1 23h11V1H1v22Zm11 0h11V1H12v22ZM4 5h5-5Zm11 0h5-5ZM4 9h5-5Zm11 0h5-5ZM4 13h5-5Zm11 0h5-5Z"/></svg>

<svg xmlns="http://www.w3.org/2000/svg" viewBox="0 0 24 24" height="1em" width="1em">
  <path fill="none" stroke="#000" stroke-width="2" d="M7,19 L8,19 L8,18 L7,18 L7,19 Z M18,19 L19,19 L19,18 L18,18 L18,19 Z M1,23 L12,23 L12,1 L1,1 L1,23 Z M12,23 L23,23 L23,1 L12,1 L12,23 Z M4,5 L9,5 L4,5 Z M15,5 L20,5 L15,5 Z M4,9 L9,9 L4,9 Z M15,9 L20,9 L15,9 Z M4,13 L9,13 L4,13 Z M15,13 L20,13 L15,13 Z"/>
</svg>
